src/assets/svg/dardanium.svg

<svg width="128" height="128" viewBox="0 0 128 128" fill="none" xmlns="http://www.w3.org/2000/svg">
<path d="M0 8C0 3.58172 3.58172 0 8 0H120C124.418 0 128 3.58172 128 8V120C128 124.418 124.418 128 120 128H8C3.58172 128 0 124.418 0 120V8Z" fill="#19F5AA"/>
<path d="M48 56C48 60.4183 44.4183 64 40 64H24C19.5817 64 16 60.4183 16 56L16 32L32 16L48 32L48 56Z" fill="#001728"/>
<path d="M16 72C16 67.5817 19.5817 64 24 64H40C44.4183 64 48 67.5817 48 72V96L32 112L16 96V72Z" fill="#001728"/>
<path d="M112 64L112 96L96 112L40 112L56 96L56 80L67.5624 87.7082C72.8788 91.2525 80 87.4414 80 81.0518L80 64L112 64Z" fill="#001728"/>
<path d="M112 64L112 32L96 16L40 16L56 32L56 48L67.5624 40.2917C72.8788 36.7474 80 40.5585 80 46.9481L80 64H112Z" fill="#001728"/>
</svg>

<svg xmlns="http://www.w3.org/2000/svg" width="128" height="128" fill="none"><path fill="#19F5AA" d="M0 8a8 8 0 0 1 8-8h112a8 8 0 0 1 8 8v112a8 8 0 0 1-8 8H8a8 8 0 0 1-8-8z"/><path fill="#001728" d="M48 56a8 8 0 0 1-8 8H24a8 8 0 0 1-8-8V32l16-16 16 16zM16 72a8 8 0 0 1 8-8h16a8 8 0 0 1 8 8v24l-16 16-16-16z"/><path fill="#001728" d="M112 64v32l-16 16H40l16-16V80l11.562 7.708C72.88 91.252 80 87.441 80 81.052V64zM112 64V32L96 16H40l16 16v16l11.562-7.708C72.88 36.747 80 40.559 80 46.948V64z"/></svg>
